X:188
T: ES WAR EINE STOLZE JUEDIN
N: E0098A
O: Europa, Mitteleuropa, Deutschland, Frankfurt; Bergstrasse; Baden
R: erzaehlendes Volks - Lied, Sage, Liebe, Leid
M: 3/4
L: 1/16
K: D
D2 | D2F2A4E4 | F2E2D4z2
d2 | c2B2c4B4 | A8z2
A2 | d2A2A2F2 | B4B2
B2 | B2B2d2B2 | A4F4
A4 | BAGFG4A4 | F8z2

